TGeo/prim2_eltu_z.svg

<svg viewBox="-600 -400 1200 800" width="1200" height="800" xmlns="http://www.w3.org/2000/svg"><path style="fill:rgb(0,0,35)" d="M182,-327l-36,453l1,-8Z"/><path style="fill:rgb(0,0,51)" d="M179,-319l-37,454l4,-9Z"/><path style="fill:rgb(0,0,63)" d="M173,-309l-35,454l4,-10Z"/><path style="fill:rgb(0,0,74)" d="M165,-299l-34,454l7,-10Z"/><path style="fill:rgb(0,0,82)" d="M156,-289l-32,455l7,-11Z"/><path style="fill:rgb(0,0,89)" d="M144,-278l-30,456l10,-12Z"/><path style="fill:rgb(0,0,96)" d="M131,-266l-27,456l10,-12Z"/><path style="fill:rgb(0,0,102)" d="M117,-254l-25,456l12,-12Z"/><path style="fill:rgb(0,0,107)" d="M100,-242l-21,457l13,-13Z"/><path style="fill:rgb(0,0,112)" d="M82,-230l-17,457l14,-12Z"/><path style="fill:rgb(0,0,117)" d="M64,-218l-14,458l15,-13Z"/><path style="fill:rgb(0,0,121)" d="M44,-206l-10,458l16,-12Z"/><path style="fill:rgb(0,0,38)" d="M182,-327l-35,445l37,-453Z"/><path style="fill:rgb(0,0,55)" d="M179,-319l-33,445l36,-453Z"/><path style="fill:rgb(0,0,125)" d="M23,-195l-5,459l16,-12Z"/><path style="fill:rgb(0,0,68)" d="M173,-309l-31,444l37,-454Z"/><path style="fill:rgb(0,0,130)" d="M2,-184l-1,459l17,-11Z"/><path style="fill:rgb(0,0,79)" d="M165,-299l-27,444l35,-454Z"/><path style="fill:rgb(0,0,134)" d="M-20,-174l4,459l17,-10Z"/><path style="fill:rgb(0,0,137)" d="M-42,-164l9,459l17,-10Z"/><path style="fill:rgb(0,0,88)" d="M156,-289l-25,444l34,-454Z"/><path style="fill:rgb(0,0,141)" d="M-63,-156l14,459l16,-8Z"/><path style="fill:rgb(0,0,96)" d="M144,-278l-20,444l32,-455Z"/><path style="fill:rgb(0,0,145)" d="M-84,-148l19,459l16,-8Z"/><path style="fill:rgb(0,0,1)" d="M-209,-149l46,459l3,6Z"/><path style="fill:rgb(0,0,148)" d="M-104,-142l23,459l16,-6Z"/><path style="fill:rgb(0,0,41)" d="M-206,-143l46,459l4,5Z"/><path style="fill:rgb(0,0,103)" d="M131,-266l-17,444l30,-456Z"/><path style="fill:rgb(0,0,151)" d="M-123,-137l27,459l15,-5Z"/><path style="fill:rgb(0,0,85)" d="M-201,-138l45,459l6,4Z"/><path style="fill:rgb(0,0,154)" d="M-141,-134l32,459l13,-3Z"/><path style="fill:rgb(0,0,120)" d="M-193,-134l43,459l8,2Z"/><path style="fill:rgb(0,0,154)" d="M-157,-132l35,459l13,-2Z"/><path style="fill:rgb(0,0,141)" d="M-183,-132l41,459l9,1Z"/><path style="fill:rgb(0,0,151)" d="M-171,-131l38,459l11,-1Z"/><path style="fill:rgb(0,0,109)" d="M117,-254l-13,444l27,-456Z"/><path style="fill:rgb(0,0,115)" d="M100,-242l-8,444l25,-456Z"/><path style="fill:rgb(0,0,121)" d="M82,-230l-3,445l21,-457Z"/><path style="fill:rgb(0,0,126)" d="M64,-218l1,445l17,-457Z"/><path style="fill:rgb(0,0,136)" d="M0,-255l146,-106h-12ZM0,-255l157,-105l-11,-1ZM0,-255l134,-106l-13,2ZM0,-255l166,-104l-9,-1ZM0,-255l121,-104l-15,2ZM0,-255l173,-101l-7,-3ZM0,-255l106,-102l-16,4ZM0,-255l179,-97l-6,-4Z"/><path style="fill:rgb(0,0,131)" d="M44,-206l6,446l14,-458Z"/><path style="fill:rgb(0,0,136)" d="M0,-255l90,-98l-17,5ZM0,-255l182,-92l-3,-5Z"/><path style="fill:rgb(0,0,137)" d="M0,-255l73,-93l-17,5ZM0,-255l184,-87l-2,-5ZM0,-255l56,-88l-19,7ZM0,-255l184,-80v-7Z"/><path style="fill:rgb(0,0,136)" d="M23,-195l11,447l10,-458Z"/><path style="fill:rgb(0,0,137)" d="M0,-255l37,-81l-19,8Z"/><path style="fill:rgb(0,0,138)" d="M0,-255l182,-72l2,-8ZM0,-255l18,-73l-19,8ZM0,-255l179,-64l3,-8Z"/><path style="fill:rgb(0,0,140)" d="M2,-184l16,448l5,-459Z"/><path style="fill:rgb(0,0,139)" d="M0,-255l-1,-65l-20,9ZM0,-255l173,-54l6,-10Z"/><path style="fill:rgb(0,0,145)" d="M-20,-174l21,449l1,-459Z"/><path style="fill:rgb(0,0,139)" d="M0,-255l-21,-56l-20,10ZM0,-255l165,-44l8,-10Z"/><path style="fill:rgb(0,0,149)" d="M-42,-164l26,449l-4,-459Z"/><path style="fill:rgb(0,0,140)" d="M0,-255l-41,-46l-19,11ZM0,-255l156,-34l9,-10ZM0,-255l-60,-35l-20,11Z"/><path style="fill:rgb(0,0,153)" d="M-63,-156l30,451l-9,-459Z"/><path style="fill:rgb(0,0,141)" d="M0,-255l144,-23l12,-11Z"/><path style="fill:rgb(0,0,157)" d="M-84,-148l35,451l-14,-459Z"/><path style="fill:rgb(0,0,141)" d="M0,-255l-80,-24l-18,11Z"/><path style="fill:rgb(0,0,142)" d="M0,-255l131,-11l13,-12Z"/><path style="fill:rgb(0,0,161)" d="M-104,-142l39,453l-19,-459Z"/><path style="fill:rgb(0,0,1)" d="M-209,-149l49,465l-46,-459Z"/><path style="fill:rgb(0,0,142)" d="M0,-255l-98,-13l-18,12Z"/><path style="fill:rgb(0,0,143)" d="M0,-255l117,1l14,-12Z"/><path style="fill:rgb(0,0,164)" d="M-123,-137l42,454l-23,-459Z"/><path style="fill:rgb(0,0,45)" d="M-206,-143l50,464l-45,-459Z"/><path style="fill:rgb(0,0,167)" d="M-141,-134l45,456l-27,-459Z"/><path style="fill:rgb(0,0,92)" d="M-201,-138l51,463l-43,-459Z"/><path style="fill:rgb(0,0,143)" d="M0,-255l-116,-1l-17,12ZM0,-255l100,13l17,-12Z"/><path style="fill:rgb(0,0,168)" d="M-157,-132l48,457l-32,-459Z"/><path style="fill:rgb(0,0,131)" d="M-193,-134l51,461l-41,-459Z"/><path style="fill:rgb(0,0,164)" d="M-171,-131l49,458l-35,-459Z"/><path style="fill:rgb(0,0,154)" d="M-183,-132l50,460l-38,-459Z"/><path style="fill:rgb(0,0,143)" d="M0,-255l-133,11l-16,12Z"/><path style="fill:rgb(0,0,144)" d="M0,-255l82,25l18,-12ZM0,-255l-149,23l-14,12Z"/><path style="fill:rgb(0,0,145)" d="M0,-255l64,37l18,-12ZM0,-255l-163,35l-13,12Z"/><path style="fill:rgb(0,0,146)" d="M0,-255l44,49l20,-12Z"/><path style="fill:rgb(0,0,145)" d="M0,-255l-176,47l-11,12Z"/><path style="fill:rgb(0,0,146)" d="M0,-255l23,60l21,-11ZM0,-255l-187,59l-9,11Z"/><path style="fill:rgb(0,0,147)" d="M0,-255l2,71l21,-11ZM0,-255l-196,70l-7,10Z"/><path style="fill:rgb(0,0,148)" d="M0,-255l-20,81l22,-10Z"/><path style="fill:rgb(0,0,147)" d="M0,-255l-203,80l-4,9Z"/><path style="fill:rgb(0,0,148)" d="M0,-255l-42,91l22,-10ZM0,-255l-207,89l-2,9Z"/><path style="fill:rgb(0,0,149)" d="M0,-255l-63,99l21,-8Z"/><path style="fill:rgb(0,0,148)" d="M0,-255l-209,98v8Z"/><path style="fill:rgb(0,0,149)" d="M0,-255l-84,107l21,-8ZM0,-255l-209,106l3,6ZM0,-255l-104,113l20,-6ZM0,-255l-206,112l5,5Z"/><path style="fill:rgb(0,0,150)" d="M0,-255l-123,118l19,-5Z"/><path style="fill:rgb(0,0,149)" d="M0,-255l-201,117l8,4Z"/><path style="fill:rgb(0,0,150)" d="M0,-255l-141,121l18,-3ZM0,-255l-193,121l10,2ZM0,-255l-157,123l16,-2ZM0,-255l-183,123l12,1ZM0,-255l-171,124l14,-1Z"/></svg>

<svg xmlns="http://www.w3.org/2000/svg" viewBox="-600 -400 1200 800" width="1200" height="800" style="background:rgb(255,255,255)"><path style="fill:rgb(0,0,35)" d="M182,-327L146,126L147,118z"/><path style="fill:rgb(0,0,51)" d="M179,-319L142,135L146,126z"/><path style="fill:rgb(0,0,63)" d="M173,-309L138,145L142,135z"/><path style="fill:rgb(0,0,74)" d="M165,-299L131,155L138,145z"/><path style="fill:rgb(0,0,82)" d="M156,-289L124,166L131,155z"/><path style="fill:rgb(0,0,89)" d="M144,-278L114,178L124,166z"/><path style="fill:rgb(0,0,96)" d="M131,-266L104,190L114,178z"/><path style="fill:rgb(0,0,102)" d="M117,-254L92,202L104,190z"/><path style="fill:rgb(0,0,107)" d="M100,-242L79,215L92,202z"/><path style="fill:rgb(0,0,112)" d="M82,-230L65,227L79,215z"/><path style="fill:rgb(0,0,117)" d="M64,-218L50,240L65,227z"/><path style="fill:rgb(0,0,121)" d="M44,-206L34,252L50,240z"/><path style="fill:rgb(0,0,38)" d="M182,-327L147,118L184,-335z"/><path style="fill:rgb(0,0,55)" d="M179,-319L146,126L182,-327z"/><path style="fill:rgb(0,0,125)" d="M23,-195L18,264L34,252z"/><path style="fill:rgb(0,0,68)" d="M173,-309L142,135L179,-319z"/><path style="fill:rgb(0,0,130)" d="M2,-184L1,275L18,264z"/><path style="fill:rgb(0,0,79)" d="M165,-299L138,145L173,-309z"/><path style="fill:rgb(0,0,134)" d="M-20,-174L-16,285L1,275z"/><path style="fill:rgb(0,0,137)" d="M-42,-164L-33,295L-16,285z"/><path style="fill:rgb(0,0,88)" d="M156,-289L131,155L165,-299z"/><path style="fill:rgb(0,0,141)" d="M-63,-156L-49,303L-33,295z"/><path style="fill:rgb(0,0,96)" d="M144,-278L124,166L156,-289z"/><path style="fill:rgb(0,0,145)" d="M-84,-148L-65,311L-49,303z"/><path style="fill:rgb(0,0,1)" d="M-209,-149L-163,310L-160,316z"/><path style="fill:rgb(0,0,148)" d="M-104,-142L-81,317L-65,311z"/><path style="fill:rgb(0,0,41)" d="M-206,-143L-160,316L-156,321z"/><path style="fill:rgb(0,0,103)" d="M131,-266L114,178L144,-278z"/><path style="fill:rgb(0,0,151)" d="M-123,-137L-96,322L-81,317z"/><path style="fill:rgb(0,0,85)" d="M-201,-138L-156,321L-150,325z"/><path style="fill:rgb(0,0,154)" d="M-141,-134L-109,325L-96,322z"/><path style="fill:rgb(0,0,120)" d="M-193,-134L-150,325L-142,327z"/><path style="fill:rgb(0,0,154)" d="M-157,-132L-122,327L-109,325z"/><path style="fill:rgb(0,0,141)" d="M-183,-132L-142,327L-133,328z"/><path style="fill:rgb(0,0,151)" d="M-171,-131L-133,328L-122,327z"/><path style="fill:rgb(0,0,109)" d="M117,-254L104,190L131,-266z"/><path style="fill:rgb(0,0,115)" d="M100,-242L92,202L117,-254z"/><path style="fill:rgb(0,0,121)" d="M82,-230L79,215L100,-242z"/><path style="fill:rgb(0,0,126)" d="M64,-218L65,227L82,-230z"/><path style="fill:rgb(0,0,136)" d="M-0,-255L146,-361L134,-361zM-0,-255L157,-360L146,-361zM-0,-255L134,-361L121,-359zM-0,-255L166,-359L157,-360zM-0,-255L121,-359L106,-357zM-0,-255L173,-356L166,-359zM-0,-255L106,-357L90,-353zM-0,-255L179,-352L173,-356z"/><path style="fill:rgb(0,0,131)" d="M44,-206L50,240L64,-218z"/><path style="fill:rgb(0,0,136)" d="M-0,-255L90,-353L73,-348zM-0,-255L182,-347L179,-352z"/><path style="fill:rgb(0,0,137)" d="M-0,-255L73,-348L56,-343zM-0,-255L184,-342L182,-347zM-0,-255L56,-343L37,-336zM-0,-255L184,-335L184,-342z"/><path style="fill:rgb(0,0,136)" d="M23,-195L34,252L44,-206z"/><path style="fill:rgb(0,0,137)" d="M-0,-255L37,-336L18,-328z"/><path style="fill:rgb(0,0,138)" d="M-0,-255L182,-327L184,-335zM-0,-255L18,-328L-1,-320zM-0,-255L179,-319L182,-327z"/><path style="fill:rgb(0,0,140)" d="M2,-184L18,264L23,-195z"/><path style="fill:rgb(0,0,139)" d="M-0,-255L-1,-320L-21,-311zM-0,-255L173,-309L179,-319z"/><path style="fill:rgb(0,0,145)" d="M-20,-174L1,275L2,-184z"/><path style="fill:rgb(0,0,139)" d="M-0,-255L-21,-311L-41,-301zM-0,-255L165,-299L173,-309z"/><path style="fill:rgb(0,0,149)" d="M-42,-164L-16,285L-20,-174z"/><path style="fill:rgb(0,0,140)" d="M-0,-255L-41,-301L-60,-290zM-0,-255L156,-289L165,-299zM-0,-255L-60,-290L-80,-279z"/><path style="fill:rgb(0,0,153)" d="M-63,-156L-33,295L-42,-164z"/><path style="fill:rgb(0,0,141)" d="M-0,-255L144,-278L156,-289z"/><path style="fill:rgb(0,0,157)" d="M-84,-148L-49,303L-63,-156z"/><path style="fill:rgb(0,0,141)" d="M-0,-255L-80,-279L-98,-268z"/><path style="fill:rgb(0,0,142)" d="M-0,-255L131,-266L144,-278z"/><path style="fill:rgb(0,0,161)" d="M-104,-142L-65,311L-84,-148z"/><path style="fill:rgb(0,0,1)" d="M-209,-149L-160,316L-206,-143z"/><path style="fill:rgb(0,0,142)" d="M-0,-255L-98,-268L-116,-256z"/><path style="fill:rgb(0,0,143)" d="M-0,-255L117,-254L131,-266z"/><path style="fill:rgb(0,0,164)" d="M-123,-137L-81,317L-104,-142z"/><path style="fill:rgb(0,0,45)" d="M-206,-143L-156,321L-201,-138z"/><path style="fill:rgb(0,0,167)" d="M-141,-134L-96,322L-123,-137z"/><path style="fill:rgb(0,0,92)" d="M-201,-138L-150,325L-193,-134z"/><path style="fill:rgb(0,0,143)" d="M-0,-255L-116,-256L-133,-244zM-0,-255L100,-242L117,-254z"/><path style="fill:rgb(0,0,168)" d="M-157,-132L-109,325L-141,-134z"/><path style="fill:rgb(0,0,131)" d="M-193,-134L-142,327L-183,-132z"/><path style="fill:rgb(0,0,164)" d="M-171,-131L-122,327L-157,-132z"/><path style="fill:rgb(0,0,154)" d="M-183,-132L-133,328L-171,-131z"/><path style="fill:rgb(0,0,143)" d="M-0,-255L-133,-244L-149,-232z"/><path style="fill:rgb(0,0,144)" d="M-0,-255L82,-230L100,-242zM-0,-255L-149,-232L-163,-220z"/><path style="fill:rgb(0,0,145)" d="M-0,-255L64,-218L82,-230zM-0,-255L-163,-220L-176,-208z"/><path style="fill:rgb(0,0,146)" d="M-0,-255L44,-206L64,-218z"/><path style="fill:rgb(0,0,145)" d="M-0,-255L-176,-208L-187,-196z"/><path style="fill:rgb(0,0,146)" d="M-0,-255L23,-195L44,-206zM-0,-255L-187,-196L-196,-185z"/><path style="fill:rgb(0,0,147)" d="M-0,-255L2,-184L23,-195zM-0,-255L-196,-185L-203,-175z"/><path style="fill:rgb(0,0,148)" d="M-0,-255L-20,-174L2,-184z"/><path style="fill:rgb(0,0,147)" d="M-0,-255L-203,-175L-207,-166z"/><path style="fill:rgb(0,0,148)" d="M-0,-255L-42,-164L-20,-174zM-0,-255L-207,-166L-209,-157z"/><path style="fill:rgb(0,0,149)" d="M-0,-255L-63,-156L-42,-164z"/><path style="fill:rgb(0,0,148)" d="M-0,-255L-209,-157L-209,-149z"/><path style="fill:rgb(0,0,149)" d="M-0,-255L-84,-148L-63,-156zM-0,-255L-209,-149L-206,-143zM-0,-255L-104,-142L-84,-148zM-0,-255L-206,-143L-201,-138z"/><path style="fill:rgb(0,0,150)" d="M-0,-255L-123,-137L-104,-142z"/><path style="fill:rgb(0,0,149)" d="M-0,-255L-201,-138L-193,-134z"/><path style="fill:rgb(0,0,150)" d="M-0,-255L-141,-134L-123,-137zM-0,-255L-193,-134L-183,-132zM-0,-255L-157,-132L-141,-134zM-0,-255L-183,-132L-171,-131zM-0,-255L-171,-131L-157,-132z"/></svg>
